src/assets/icons/long-description.svg

<svg width="34" height="24" viewBox="0 0 34 24" fill="none" xmlns="http://www.w3.org/2000/svg">
<rect x="0.5" y="0.5" width="33" height="23" rx="2.5" fill="#E5F3FF" stroke="#B8E1FF"/>
<path fill-rule="evenodd" clip-rule="evenodd" d="M20.2857 8.78571V7.92857C20.2857 7.8125 20.2398 7.71205 20.1479 7.62723C20.056 7.54241 19.9472 7.5 19.8214 7.5H11.4643C11.3385 7.5 11.2297 7.54241 11.1378 7.62723C11.0459 7.71205 11 7.8125 11 7.92857V8.78571C11 8.90179 11.0459 9.00223 11.1378 9.08705C11.2297 9.17188 11.3385 9.21429 11.4643 9.21429H19.8214C19.9472 9.21429 20.056 9.17188 20.1479 9.08705C20.2398 9.00223 20.2857 8.90179 20.2857 8.78571ZM23.0714 11.4989V12.356C23.0714 12.4721 23.0255 12.5725 22.9336 12.6574C22.8417 12.7422 22.7329 12.7846 22.6071 12.7846H11.4643C11.3385 12.7846 11.2297 12.7422 11.1378 12.6574C11.0459 12.5725 11 12.4721 11 12.356V11.4989C11 11.3828 11.0459 11.2824 11.1378 11.1975C11.2297 11.1127 11.3385 11.0703 11.4643 11.0703H22.6071C22.7329 11.0703 22.8417 11.1127 22.9336 11.1975C23.0255 11.2824 23.0714 11.3828 23.0714 11.4989ZM21.2143 15.0731V15.9302C21.2143 16.0463 21.1683 16.1468 21.0765 16.2316C20.9846 16.3164 20.8757 16.3588 20.75 16.3588H11.4643C11.3385 16.3588 11.2297 16.3164 11.1378 16.2316C11.0459 16.1468 11 16.0463 11 15.9302V15.0731C11 14.957 11.0459 14.8566 11.1378 14.7718C11.2297 14.6869 11.3385 14.6445 11.4643 14.6445H20.75C20.8757 14.6445 20.9846 14.6869 21.0765 14.7718C21.1683 14.8566 21.2143 14.957 21.2143 15.0731Z" fill="#2684B8"/>
</svg>

<svg width="34" height="24" fill="none" xmlns="http://www.w3.org/2000/svg"><rect x=".5" y=".5" width="33" height="23" rx="2.5" fill="#E5F3FF" stroke="#B8E1FF"/><path fill-rule="evenodd" clip-rule="evenodd" d="M20.286 8.786v-.857a.397.397 0 00-.138-.302.465.465 0 00-.327-.127h-8.357a.465.465 0 00-.326.127.397.397 0 00-.138.302v.857c0 .116.046.216.138.301.092.085.2.127.326.127h8.357a.465.465 0 00.327-.127.397.397 0 00.138-.301zm2.785 2.713v.857a.397.397 0 01-.137.301.465.465 0 01-.327.128H11.464a.465.465 0 01-.326-.128.397.397 0 01-.138-.301v-.857c0-.116.046-.217.138-.302a.465.465 0 01.326-.127h11.143c.126 0 .235.043.327.127a.397.397 0 01.137.302zm-1.857 3.574v.857a.397.397 0 01-.137.302.465.465 0 01-.327.127h-9.286a.465.465 0 01-.326-.127.397.397 0 01-.138-.302v-.857c0-.116.046-.216.138-.301a.465.465 0 01.326-.127h9.286c.126 0 .235.042.326.127a.397.397 0 01.138.301z" fill="#2684B8"/></svg>
